img/era/ancient.svg

<?xml version="1.0" encoding="iso-8859-1"?>
<!-- Uploaded to: SVG Repo, www.svgrepo.com, Generator: SVG Repo Mixer Tools -->
<svg fill="#000000" height="800px" width="800px" version="1.1" id="Layer_1" xmlns="http://www.w3.org/2000/svg" xmlns:xlink="http://www.w3.org/1999/xlink" 
	 viewBox="0 0 512 512" xml:space="preserve">
<g>
	<g>
		<path d="M503.467,460.693v-25.6c0-5.12-3.413-8.533-8.533-8.533h-17.067v-25.6c0-5.12-3.413-8.533-8.533-8.533h-17.067V204.693
			h17.067c5.12,0,8.533-3.413,8.533-8.533v-25.6h17.067c4.267,0,7.68-2.56,8.533-6.827s-0.853-7.68-4.267-9.387L260.267,34.88
			c-2.56-0.853-5.12-0.853-7.68,0L5.12,154.347c-3.413,1.707-5.12,5.973-4.267,9.387c0,4.267,3.413,6.827,7.68,6.827h25.6v25.6
			c0,5.12,3.413,8.533,8.533,8.533h17.067v187.733H42.667c-5.12,0-8.533,3.413-8.533,8.533v25.6H17.067
			c-5.12,0-8.533,3.413-8.533,8.533v25.6c-5.12,0-8.533,3.413-8.533,8.533c0,5.12,3.413,8.533,8.533,8.533h8.533h477.867h8.533
			c5.12,0,8.533-3.413,8.533-8.533C512,464.107,508.587,460.693,503.467,460.693z M51.2,187.627V170.56h409.6v17.067h-17.067H409.6
			h-51.2h-34.133h-51.2h-34.133h-51.2H153.6h-51.2H68.267H51.2z M401.067,204.693v187.733h-34.133V204.693H401.067z
			 M315.733,204.693v187.733H281.6V204.693H315.733z M230.4,204.693v187.733h-34.133V204.693H230.4z M145.067,204.693v187.733
			h-34.133V204.693H145.067z M460.8,426.56H51.2v-17.067h17.067H102.4h51.2h34.133h51.2h34.133h51.2H358.4h51.2h34.133H460.8V426.56
			z"/>
	</g>
</g>
</svg>

<?xml version="1.0" encoding="UTF-8" standalone="no"?>
<!-- Uploaded to: SVG Repo, www.svgrepo.com, Generator: SVG Repo Mixer Tools -->

<svg
   fill="#000000"
   height="800px"
   width="800px"
   version="1.1"
   id="Layer_1"
   viewBox="0 0 512 512"
   xml:space="preserve"
   sodipodi:docname="ancient.svg"
   inkscape:version="1.2.2 (b0a8486, 2022-12-01)"
   xmlns:inkscape="http://www.inkscape.org/namespaces/inkscape"
   xmlns:sodipodi="http://sodipodi.sourceforge.net/DTD/sodipodi-0.dtd"
   xmlns="http://www.w3.org/2000/svg"
   xmlns:svg="http://www.w3.org/2000/svg"><defs
   id="defs4796" /><sodipodi:namedview
   id="namedview4794"
   pagecolor="#ffffff"
   bordercolor="#666666"
   borderopacity="1.0"
   inkscape:showpageshadow="2"
   inkscape:pageopacity="0.0"
   inkscape:pagecheckerboard="0"
   inkscape:deskcolor="#d1d1d1"
   showgrid="false"
   inkscape:zoom="0.53125"
   inkscape:cx="-163.76471"
   inkscape:cy="398.11765"
   inkscape:window-width="1920"
   inkscape:window-height="1016"
   inkscape:window-x="0"
   inkscape:window-y="27"
   inkscape:window-maximized="1"
   inkscape:current-layer="Layer_1" />
<g
   id="g4791"
   transform="matrix(0.7977877,0,0,0.7977877,51.76595,51.766648)"
   style="stroke-width:1.25347">
	<g
   id="g4789"
   style="stroke-width:1.25347">
		<path
   d="m 503.467,460.693 v -25.6 c 0,-5.12 -3.413,-8.533 -8.533,-8.533 h -17.067 v -25.6 c 0,-5.12 -3.413,-8.533 -8.533,-8.533 H 452.267 V 204.693 h 17.067 c 5.12,0 8.533,-3.413 8.533,-8.533 v -25.6 h 17.067 c 4.267,0 7.68,-2.56 8.533,-6.827 0.853,-4.267 -0.853,-7.68 -4.267,-9.387 L 260.267,34.88 c -2.56,-0.853 -5.12,-0.853 -7.68,0 L 5.12,154.347 c -3.413,1.707 -5.12,5.973 -4.267,9.387 0,4.267 3.413,6.827 7.68,6.827 h 25.6 v 25.6 c 0,5.12 3.413,8.533 8.533,8.533 H 59.733 V 392.427 H 42.667 c -5.12,0 -8.533,3.413 -8.533,8.533 v 25.6 H 17.067 c -5.12,0 -8.533,3.413 -8.533,8.533 v 25.6 c -5.12,0 -8.533,3.413 -8.533,8.533 0,5.12 3.413,8.533 8.533,8.533 h 8.533 477.867 8.533 c 5.12,0 8.533,-3.413 8.533,-8.533 0,-5.119 -3.413,-8.533 -8.533,-8.533 z M 51.2,187.627 V 170.56 h 409.6 v 17.067 H 443.733 409.6 358.4 324.267 273.067 238.934 187.734 153.6 102.4 68.267 Z m 349.867,17.066 V 392.426 H 366.934 V 204.693 Z m -85.334,0 V 392.426 H 281.6 V 204.693 Z m -85.333,0 V 392.426 H 196.267 V 204.693 Z m -85.333,0 V 392.426 H 110.934 V 204.693 Z M 460.8,426.56 H 51.2 v -17.067 h 17.067 34.133 51.2 34.133 51.2 34.133 51.2 34.134 51.2 34.133 17.067 z"
   id="path4787"
   style="stroke-width:1.25347" />
	</g>
</g>
</svg>
